svgs/qq.svg

<svg width="192" height="192" viewBox="0 0 192 192" fill="none" xmlns="http://www.w3.org/2000/svg">
<path d="M153.933 114.718C150.98 105.209 147.584 97.2174 142.36 84.1386C143.172 49.7855 128.922 22 96.1015 22C62.9121 22 48.9756 50.3405 49.8617 84.1386C44.6198 97.2359 41.2416 105.172 38.2881 114.718C32.0117 134.974 34.0423 143.354 35.5929 143.539C38.9157 143.946 48.5326 128.296 48.5326 128.296C48.5326 137.36 53.1845 149.182 63.2628 157.709C58.3901 159.208 47.4434 163.241 50.0463 167.662C52.1507 171.232 86.2631 169.937 96.1015 168.827C105.94 169.937 140.052 171.232 142.157 167.662C144.759 163.259 133.795 159.208 128.94 157.709C139.018 149.163 143.67 137.342 143.67 128.296C143.67 128.296 153.287 143.946 156.61 143.539C158.179 143.336 160.21 134.956 153.933 114.718V114.718Z" stroke="black" stroke-width="12" stroke-linejoin="round"/>
</svg>

<svg width="192" height="192" viewBox="0 0 192 192" fill="none" xmlns="http://www.w3.org/2000/svg"><path d="M153.933 114.718c-2.953-9.509-6.349-17.5-11.573-30.58C143.172 49.786 128.922 22 96.101 22c-33.189 0-47.125 28.34-46.24 62.139-5.241 13.097-8.62 21.033-11.573 30.579-6.276 20.256-4.246 28.636-2.695 28.821 3.323.407 12.94-15.243 12.94-15.243 0 9.064 4.651 20.886 14.73 29.413-4.873 1.499-15.82 5.532-13.217 9.953 2.105 3.57 36.217 2.275 46.056 1.165 9.838 1.11 43.95 2.405 46.055-1.165 2.602-4.403-8.362-8.454-13.217-9.953 10.078-8.546 14.73-20.367 14.73-29.413 0 0 9.617 15.65 12.94 15.243 1.569-.203 3.6-8.583-2.677-28.821Z" stroke="#000" stroke-width="12" stroke-linejoin="round"/></svg>
